assets/efishery/bos-juragan-tambak.svg

<svg width="24" height="25" viewBox="0 0 24 25" fill="none" xmlns="http://www.w3.org/2000/svg">
<path fill-rule="evenodd" clip-rule="evenodd" d="M7 6.02344C7 3.95237 8.67893 2.27344 10.75 2.27344C12.8211 2.27344 14.5 3.95237 14.5 6.02344V8.02344C14.5 10.0945 12.8211 11.7734 10.75 11.7734C8.67893 11.7734 7 10.0945 7 8.02344V6.02344ZM10.3593 3.80723C9.30292 3.99217 8.5 4.91404 8.5 6.02344V6.10671C8.8788 5.93401 9.22574 5.63443 9.53935 5.24242C9.90348 4.78725 10.1789 4.25809 10.3593 3.80723ZM11.8633 4.06773C11.8071 4.22843 11.7402 4.40024 11.6625 4.57854C11.7123 4.62612 11.7719 4.67286 11.8425 4.71432C12.0087 4.81199 12.2731 4.90242 12.6788 4.86429C12.4799 4.53402 12.1986 4.259 11.8633 4.06773ZM10.7107 6.17946C10.7831 6.08886 10.8527 5.99646 10.9193 5.9029C10.9714 5.93925 11.0258 5.97422 11.0825 6.00756C11.5854 6.30308 12.2281 6.44594 13 6.33613V8.02344C13 9.26608 11.9926 10.2734 10.75 10.2734C9.50736 10.2734 8.5 9.26608 8.5 8.02344V7.6868C9.44946 7.46285 10.1853 6.83619 10.7107 6.17946Z" fill="#1D1D1D"/>
<path d="M6.75 12.7734C5.50736 12.7734 4.5 13.7808 4.5 15.0234V18.2734H9.75C10.1642 18.2734 10.5 18.6092 10.5 19.0234C10.5 19.4377 10.1642 19.7734 9.75 19.7734H3.75C3.33579 19.7734 3 19.4377 3 19.0234V15.0234C3 12.9524 4.67893 11.2734 6.75 11.2734H7.25C7.53235 11.2734 7.79062 11.432 7.91849 11.6834L7.92131 11.6887C7.92516 11.6958 7.93269 11.7094 7.94401 11.7286C7.96668 11.7671 8.00421 11.8274 8.05733 11.9024C8.16414 12.0532 8.33029 12.258 8.56077 12.4629C9.01543 12.867 9.71959 13.2734 10.75 13.2734C11.7804 13.2734 12.4846 12.867 12.9392 12.4629C13.1697 12.258 13.3359 12.0532 13.4427 11.9024C13.4958 11.8274 13.5333 11.7671 13.556 11.7286C13.5673 11.7094 13.5748 11.6958 13.5787 11.6887L13.5815 11.6834C13.7094 11.432 13.9677 11.2734 14.25 11.2734H14.75C16.8211 11.2734 18.5 12.9524 18.5 15.0234V15.5234C18.5 15.9377 18.1642 16.2734 17.75 16.2734C17.3358 16.2734 17 15.9377 17 15.5234V15.0234C17 13.7808 15.9926 12.7734 14.75 12.7734H14.6639C14.505 12.9972 14.2658 13.2906 13.9358 13.584C13.2654 14.1799 12.2196 14.7734 10.75 14.7734C9.28041 14.7734 8.23457 14.1799 7.56423 13.584C7.23417 13.2906 6.99495 12.9972 6.83612 12.7734H6.75Z" fill="#1D1D1D"/>
<path fill-rule="evenodd" clip-rule="evenodd" d="M17.2885 16.5234C16.2954 16.5234 15.4024 16.8092 14.7425 17.175C14.5795 17.2654 14.4228 17.365 14.2771 17.4726L13.0964 16.7146C12.7332 16.4814 12.2698 16.4604 11.8866 16.6579C11.5014 16.8564 11.25 17.2501 11.25 17.6901V20.3568C11.25 20.7968 11.5014 21.1905 11.8866 21.389C12.2698 21.5865 12.7332 21.5654 13.0964 21.3322L14.2771 20.5743C14.4228 20.6819 14.5795 20.7815 14.7425 20.8719C15.4024 21.2376 16.2954 21.5234 17.2885 21.5234C18.1955 21.5234 19.0756 21.3489 19.7731 21.013C20.3897 20.7162 21.25 20.0842 21.25 19.0234C21.25 17.9627 20.3897 17.3307 19.7731 17.0338C19.0756 16.698 18.1955 16.5234 17.2885 16.5234ZM15.2273 18.0496C15.755 17.7572 16.4825 17.5234 17.2885 17.5234C18.0225 17.5234 18.7003 17.6561 19.2215 17.8811C19.1562 17.8652 19.0883 17.8568 19.0192 17.8568C18.5699 17.8568 18.1731 18.2122 18.1731 18.6901C18.1731 19.168 18.5699 19.5234 19.0192 19.5234C19.4686 19.5234 19.8654 19.168 19.8654 18.6901C19.8654 18.435 19.7523 18.2148 19.5786 18.0649C19.9818 18.3127 20.25 18.642 20.25 19.0234C20.25 19.4762 19.8722 19.8554 19.3393 20.112C18.8046 20.3695 18.0791 20.5234 17.2885 20.5234C16.4825 20.5234 15.755 20.2897 15.2273 19.9972C15.0007 19.8716 14.806 19.7324 14.6564 19.5919L14.3721 19.3249L12.5562 20.4907C12.4946 20.5303 12.4117 20.5347 12.3447 20.5001C12.2797 20.4666 12.25 20.4085 12.25 20.3568V17.6901C12.25 17.6384 12.2797 17.5803 12.3447 17.5468C12.4117 17.5122 12.4946 17.5166 12.5562 17.5562L14.3721 18.7219L14.6564 18.455C14.806 18.3145 15.0007 18.1753 15.2273 18.0496ZM19.1731 18.6901C19.1731 18.7998 19.0862 18.8568 19.0192 18.8568C18.9522 18.8568 18.8654 18.7998 18.8654 18.6901C18.8654 18.5804 18.9522 18.5234 19.0192 18.5234C19.0862 18.5234 19.1731 18.5804 19.1731 18.6901Z" fill="#1D1D1D"/>
</svg>

<svg viewBox="0 0 24 25" xmlns="http://www.w3.org/2000/svg">
  <path fill-rule="evenodd" clip-rule="evenodd" d="M7 6.023a3.75 3.75 0 1 1 7.5 0v2a3.75 3.75 0 1 1-7.5 0v-2zm3.36-2.216A2.25 2.25 0 0 0 8.5 6.023v.084c.379-.173.726-.473 1.04-.865.363-.455.639-.984.82-1.435zm1.503.26c-.056.161-.123.333-.2.512.05.047.109.094.18.135.166.098.43.188.836.15a2.26 2.26 0 0 0-.816-.796zM10.711 6.18c.072-.09.142-.183.208-.276.052.036.107.071.163.105.503.295 1.146.438 1.918.328v1.687a2.25 2.25 0 0 1-4.5 0v-.336c.95-.224 1.685-.85 2.21-1.508z"/>
  <path d="M6.75 12.773a2.25 2.25 0 0 0-2.25 2.25v3.25h5.25a.75.75 0 0 1 0 1.5h-6a.75.75 0 0 1-.75-.75v-4a3.75 3.75 0 0 1 3.75-3.75h.5a.75.75 0 0 1 .668.41l.003.006.023.04a3.348 3.348 0 0 0 .617.734c.454.404 1.159.81 2.189.81s1.735-.406 2.19-.81a3.347 3.347 0 0 0 .616-.734l.023-.04.002-.006a.75.75 0 0 1 .669-.41h.5a3.75 3.75 0 0 1 3.75 3.75v.5a.75.75 0 1 1-1.5 0v-.5a2.25 2.25 0 0 0-2.25-2.25h-.086a4.85 4.85 0 0 1-.728.811c-.67.596-1.716 1.19-3.186 1.19s-2.515-.594-3.186-1.19a4.845 4.845 0 0 1-.728-.81H6.75z"/>
  <path fill-rule="evenodd" clip-rule="evenodd" d="M17.288 16.523c-.993 0-1.886.286-2.546.652-.163.09-.32.19-.465.298l-1.18-.758a1.215 1.215 0 0 0-1.21-.057 1.164 1.164 0 0 0-.637 1.032v2.667c0 .44.251.834.637 1.032.383.198.846.176 1.21-.057l1.18-.758c.146.108.303.207.466.298.66.366 1.552.651 2.545.651.907 0 1.788-.174 2.485-.51.617-.297 1.477-.929 1.477-1.99 0-1.06-.86-1.692-1.477-1.99-.697-.335-1.578-.51-2.485-.51zm-2.06 1.527a4.33 4.33 0 0 1 2.06-.527c.735 0 1.412.133 1.933.358a.84.84 0 0 0-1.048.809.84.84 0 0 0 .846.833.84.84 0 0 0 .846-.833.82.82 0 0 0-.286-.625c.403.248.671.577.671.958 0 .453-.378.832-.91 1.089-.535.258-1.26.411-2.052.411a4.328 4.328 0 0 1-2.06-.526 2.882 2.882 0 0 1-.572-.405l-.284-.267-1.816 1.166a.215.215 0 0 1-.211.01.164.164 0 0 1-.095-.144V17.69c0-.052.03-.11.095-.143a.215.215 0 0 1 .211.01l1.816 1.165.284-.267c.15-.14.345-.28.571-.405zm3.945.64a.16.16 0 0 1-.154.167.16.16 0 0 1-.154-.167.16.16 0 0 1 .154-.167.16.16 0 0 1 .154.167z"/>
</svg>
